X:7006
T:Gilsland Hornpipe
R:Hornpipe
C:Trad.
S:Pete Coe
O:England, Northumberland
M:4/4
L:1/8
Q:1/4=160
K:D
de|"D"f2 af gfed|"Bm"BcdB BAFG|"D"A2AB ABde|"Em"f2e2e2de|
"D"f2af gfed|"Bm"BcdB BAFG|"D"A2AB ABde|"D"f2d2d2:|
|:de|"D"f2f2 f2 ef|"G"g2g2 g2 fg|"D"a2ab afde|"Em"f2e2e2de|
"D"f2af gfed|"Bm"BcdB BAFG|"D"A2AB ABde|"D"f2d2d2:|

